app/assets/v2/images/top-bar/gitcoin-logo.svg

<?xml version="1.0" encoding="UTF-8"?>
<svg viewBox="0 0 97 22" width="97px" height="22px" version="1.1" xmlns="http://www.w3.org/2000/svg" xmlns:xlink="http://www.w3.org/1999/xlink">
    <!-- Generator: Sketch 51.2 (57519) - http://www.bohemiancoding.com/sketch -->
    <title>gitcoin-logo</title>
    <desc>Created with Sketch.</desc>
    <defs></defs>
    <g id="Page-1" stroke="none" stroke-width="1" fill="none" fill-rule="evenodd">
        <g id="gitcoin-logo">
            <path d="M29.7721739,14.283879 L34,14.283879 L34,14.6339761 C34,15.4299819 33.9095772,16.1345379 33.7284509,16.7474986 C33.5516772,17.3148072 33.2533101,17.8454777 32.8336305,18.3396556 C31.8837702,19.4466488 30.6755592,20 29.2087165,20 C27.7772567,20 26.5513542,19.4649678 25.5308687,18.3943219 C24.5101024,17.3193143 24,16.0292761 24,14.5242073 C24,12.9870075 24.5189481,11.6830119 25.5574058,10.6126568 C26.5954424,9.53764919 27.8589742,9 29.3480013,9 C30.1474846,9 30.8941745,9.16865145 31.5877901,9.50551818 C32.250516,9.84267569 32.9021496,10.3902113 33.5428315,11.1481251 L32.4427346,12.2391256 C31.6033754,11.0816823 30.5805029,10.5027426 29.3745384,10.5027426 C28.2919925,10.5027426 27.3841142,10.8894778 26.6507631,11.6626574 C25.9172716,12.4220251 25.5506662,13.3734519 25.5506662,14.5172286 C25.5506662,15.6976434 25.9592536,16.6697154 26.7767091,17.4337356 C27.5408096,18.1427986 28.3693574,18.4972574 29.2617908,18.4972574 C30.021679,18.4972574 30.7042024,18.2326491 31.3096418,17.7034325 C31.9148004,17.169418 32.2527625,16.530578 32.3235282,15.7867669 L29.7721739,15.7867669 L29.7721739,14.283879 Z" id="Fill-1" fill="#FFFFFF"></path>
            <polygon id="Fill-3" fill="#FFFFFF" points="38 19 40 19 40 9 38 9"></polygon>
            <polygon id="Fill-5" fill="#FFFFFF" points="47.7452934 10.4184563 47.7452934 19 46.2610495 19 46.2610495 10.4184563 44 10.4184563 44 9 50 9 50 10.4184563"></polygon>
            <path d="M63,9.77248621 L63,11.6642773 C62.1155024,10.8907728 61.2002505,10.5036568 60.2545227,10.5036568 C59.2123574,10.5036568 58.3344002,10.8952826 57.6207904,11.6780977 C56.9025884,12.456112 56.5435569,13.4082631 56.5435569,14.53426 C56.5435569,15.6467274 56.9025884,16.5850581 57.6207904,17.3495431 C58.3387142,18.114028 59.2188979,18.4961977 60.2610632,18.4961977 C60.7997495,18.4961977 61.2573059,18.4048378 61.6338714,18.2213905 C61.8440022,18.1300306 62.0617868,18.00652 62.2873643,17.850859 C62.5128027,17.6951979 62.7504871,17.5073863 63,17.2875696 L63,19.2205309 C62.1242694,19.7403224 61.2047036,20 60.2414417,20 C58.7920957,20 57.554968,19.4713343 56.5303368,18.4137119 C55.5101586,17.3473609 55,16.0610477 55,14.5550633 C55,13.2047399 55.4269413,12.0007671 56.280963,10.9432902 C57.3318954,9.64795736 58.6913443,9 60.3595881,9 C61.2703869,9 62.1505706,9.25764088 63,9.77248621" id="Fill-6" fill="#FFFFFF"></path>
            <path d="M68.6016698,12.47256 C68.6016698,13.6441077 68.9922681,14.6073447 69.773898,15.3627076 C70.5507627,16.1176338 71.4480559,16.4952425 72.4659219,16.4952425 C73.569994,16.4952425 74.5013652,16.110792 75.2601801,15.3418911 C76.018995,14.5641104 76.3984746,13.616595 76.3984746,12.4999272 C76.3984746,11.3697214 76.0234713,10.4223516 75.273898,9.65796334 C74.5286566,8.8890624 73.6063824,8.50461192 72.5067867,8.50461192 C71.4118118,8.50461192 70.4870829,8.8890624 69.7327444,9.65796334 C68.9785502,10.4178389 68.6016698,11.3558923 68.6016698,12.47256 M67,12.4552372 C67,10.9621253 67.5427945,9.67950771 68.6289611,8.60767551 C69.7100738,7.53584331 71.0095172,7 72.5272913,7 C74.0267269,7 75.3124524,7.54050155 76.3846124,8.62150466 C77.4616819,9.70265334 78,11.0009925 78,12.51725 C78,14.0423873 77.4592271,15.336505 76.37797,16.3991663 C75.2920922,17.4664858 73.9810969,18 72.4455617,18 C71.0867705,18 69.8670351,17.526024 68.7856336,16.5776351 C67.5952112,15.528803 67,14.1547674 67,12.4552372" id="Fill-7" fill="#0FCE7C"></path>
            <polygon id="Fill-8" fill="#FFFFFF" points="82 19 84 19 84 9 82 9"></polygon>
            <path d="M9,8 L11,8" id="Fill-9" fill="#FFFFFF"></path>
            <path d="M15.0474961,18 L13.7747754,16.8718226 C14.7118958,15.987061 15.2280249,14.82122 15.2280249,13.5889686 C15.2280249,12.302817 14.6724734,11.1009094 13.6637815,10.2045693 L13,9.61459519 L13.7119322,9 L14.3183984,9.58797782 L14.8985344,9.04165619 C16.2537368,10.2459593 17,11.8609686 17,13.5889686 C17,15.2447024 16.3065425,16.8111349 15.0474961,18" id="Fill-10" fill="#0FCE7C"></path>
            <path d="M15.0474961,18 L13.7747754,16.8718226 C14.7118958,15.987061 15.2280249,14.82122 15.2280249,13.5889686 C15.2280249,12.302817 14.6724734,11.1009094 13.6637815,10.2045693 L13,9.61459519 L13.7119322,9 L14.3183984,9.58797782 L14.8985344,9.04165619 C16.2537368,10.2459593 17,11.8609686 17,13.5889686 C17,15.2447024 16.3065425,16.8111349 15.0474961,18 Z" id="Stroke-11" stroke="#0FCE7C" stroke-width="0.5"></path>
            <path d="M16,8 L11,13" id="Fill-12" fill="#15003E"></path>
            <path d="M14.2905921,20.3913079 L9.02830743,20.3913079 C4.93984981,20.3913079 1.61363128,17.0755427 1.61363128,12.999934 C1.61363128,8.92432524 4.93984981,5.60869214 9.02830743,5.60869214 C10.7256605,5.60869214 12.33598,6.17349072 13.6432055,7.21381881 L10.0307168,10.5410727 C9.72099916,10.4152245 9.38280027,10.3452354 9.02830743,10.3452354 C7.55986455,10.3452354 6.36523957,11.536106 6.36523957,12.999934 C6.36523957,14.4637619 7.55986455,15.6547646 9.02830743,15.6547646 C9.28980552,15.6547646 9.54216309,15.6163367 9.7810086,15.5460835 L14.2905921,18.930121 L14.2905921,20.3913079 Z M9.02830743,14.0460725 C8.44967338,14.0460725 7.97887085,13.5767495 7.97887085,12.999934 C7.97887085,12.4231184 8.44967338,11.9537955 9.02830743,11.9537955 C9.60707396,11.9537955 10.0778765,12.4231184 10.0778765,12.999934 C10.0778765,13.5767495 9.60707396,14.0460725 9.02830743,14.0460725 Z M11.6915078,12.999934 C11.6915078,12.4788455 11.5394309,11.9927517 11.2781977,11.5821931 L13.4329737,9.5976729 L13.4511223,9.61682085 L16,7.2217421 L15.4124904,6.63621091 C13.707189,4.93613681 11.4400775,4 9.02830743,4 C4.05004098,4 0,8.03744489 0,12.999934 C0,17.9135628 3.97108817,21.9175978 8.88179432,21.9961704 L8.88179432,22 L15.9043558,22 L15.9043558,18.1273596 L11.1703662,14.5752162 C11.4977025,14.1341531 11.6915078,13.5892948 11.6915078,12.999934 Z" id="Fill-13" fill="#FFFFFF"></path>
            <polygon id="Fill-14" fill="#25E899" points="18 2.5000512 17.5000512 3 17 2.5000512 17.5000512 2"></polygon>
            <polygon id="Fill-15" fill="#25E899" points="13 2.5 12.5 3 12 2.5 12.5 2"></polygon>
            <path d="M15,0.500071033 C15,0.224037505 14.7761046,0 14.499929,0 C14.2238954,0 14,0.224037505 14,0.500071033 C14,0.77610456 14.2238954,1 14.499929,1 C14.7761046,1 15,0.77610456 15,0.500071033" id="Fill-16" fill="#25E899"></path>
            <path d="M6.50005597,10 C6.22388895,10 6,9.71648297 6,9.36676472 L6,2.63323528 C6,2.28365879 6.22388895,2 6.50005597,2 C6.77611105,2 7,2.28365879 7,2.63323528 L7,9.36676472 C7,9.71648297 6.77611105,10 6.50005597,10" id="Fill-17" fill="#FFFFFF"></path>
            <path d="M10,6 L10,2.67985694 C10,2.30439084 9.77611105,2 9.50005597,2 C9.22388895,2 9,2.30439084 9,2.67985694 L9,5.93059889 C9.28545841,5.91279202 9.63483712,5.92070619 10,6" id="Fill-18" fill="#FFFFFF"></path>
            <polygon id="Fill-19" fill="#FFFFFF" points="88 19.3527903 88 8 95.4569945 16.110032 95.4569945 8.72276855 97 8.72276855 97 20 89.5431458 11.9105352 89.5431458 19.3527903"></polygon>
        </g>
    </g>
</svg>

<svg width="97" height="22" xmlns="http://www.w3.org/2000/svg"><g fill="none" fill-rule="evenodd"><path d="M29.772 14.284H34v.35c0 .796-.09 1.5-.272 2.113a4.535 4.535 0 0 1-.894 1.593c-.95 1.107-2.158 1.66-3.625 1.66-1.432 0-2.658-.535-3.678-1.606C24.51 17.32 24 16.03 24 14.524c0-1.537.519-2.841 1.557-3.911C26.595 9.538 27.86 9 29.348 9c.8 0 1.546.169 2.24.506.663.337 1.314.884 1.955 1.642l-1.1 1.091c-.84-1.157-1.862-1.736-3.068-1.736-1.083 0-1.99.386-2.724 1.16-.734.759-1.1 1.71-1.1 2.854 0 1.18.408 2.153 1.226 2.917.764.709 1.592 1.063 2.485 1.063.76 0 1.442-.264 2.048-.794.605-.534.943-1.172 1.014-1.916h-2.552v-1.503zM38 19h2V9h-2zM47.745 10.418V19h-1.484v-8.582H44V9h6v1.418zM63 9.772v1.892c-.884-.773-1.8-1.16-2.745-1.16-1.043 0-1.92.391-2.634 1.174-.718.778-1.077 1.73-1.077 2.856 0 1.113.359 2.051 1.077 2.816.718.764 1.598 1.146 2.64 1.146.539 0 .996-.091 1.373-.275.21-.091.428-.214.653-.37.226-.156.463-.344.713-.563v1.933c-.876.52-1.795.779-2.759.779-1.449 0-2.686-.529-3.71-1.586C55.51 17.347 55 16.06 55 14.555c0-1.35.427-2.554 1.281-3.612C57.331 9.648 58.691 9 60.36 9c.91 0 1.79.258 2.64.772" fill="#FFF"/><path d="M68.602 12.473c0 1.171.39 2.134 1.172 2.89.777.755 1.674 1.132 2.692 1.132 1.104 0 2.035-.384 2.794-1.153.759-.778 1.138-1.725 1.138-2.842 0-1.13-.375-2.078-1.124-2.842-.745-.769-1.668-1.153-2.767-1.153-1.095 0-2.02.384-2.774 1.153-.754.76-1.131 1.698-1.131 2.815M67 12.455c0-1.493.543-2.775 1.629-3.847C69.71 7.536 71.009 7 72.527 7c1.5 0 2.785.54 3.858 1.622C77.462 9.702 78 11 78 12.517c0 1.525-.54 2.82-1.622 3.882C75.292 17.466 73.981 18 72.446 18c-1.36 0-2.579-.474-3.66-1.422-1.19-1.05-1.786-2.423-1.786-4.123" fill="#0FCE7C"/><path fill="#FFF" d="M82 19h2V9h-2zM9 8h2"/><path d="M15.047 18l-1.272-1.128c.937-.885 1.453-2.05 1.453-3.283 0-1.286-.556-2.488-1.564-3.384L13 9.615 13.712 9l.606.588.58-.546C16.255 10.246 17 11.86 17 13.589c0 1.656-.693 3.222-1.953 4.411" fill="#0FCE7C"/><path d="M15.047 18l-1.272-1.128c.937-.885 1.453-2.05 1.453-3.283 0-1.286-.556-2.488-1.564-3.384L13 9.615 13.712 9l.606.588.58-.546C16.255 10.246 17 11.86 17 13.589c0 1.656-.693 3.222-1.953 4.411z" stroke="#0FCE7C" stroke-width=".5"/><path d="M16 8l-5 5" fill="#15003E"/><path d="M14.29 20.391H9.029c-4.088 0-7.414-3.315-7.414-7.391 0-4.076 3.326-7.391 7.414-7.391 1.698 0 3.308.564 4.615 1.605l-3.612 3.327A2.662 2.662 0 0 0 6.366 13a2.662 2.662 0 0 0 3.415 2.546l4.51 3.384v1.461zm-5.262-6.345c-.578 0-1.05-.47-1.05-1.046a1.049 1.049 0 0 1 2.1 0c0 .577-.47 1.046-1.05 1.046zM11.692 13c0-.521-.153-1.007-.414-1.418l2.155-1.984.018.019L16 7.222l-.588-.586A8.983 8.983 0 0 0 9.028 4C4.05 4 0 8.037 0 13c0 4.914 3.971 8.918 8.882 8.996V22h7.022v-3.873l-4.734-3.552c.328-.44.522-.986.522-1.575z" fill="#FFF"/><path fill="#25E899" d="M18 2.5l-.5.5-.5-.5.5-.5zM13 2.5l-.5.5-.5-.5.5-.5zM15 .5a.5.5 0 1 0-1 0 .5.5 0 0 0 1 0"/><path d="M6.5 10c-.276 0-.5-.284-.5-.633V2.633c0-.35.224-.633.5-.633s.5.284.5.633v6.734c0 .35-.224.633-.5.633M10 6V2.68c0-.376-.224-.68-.5-.68s-.5.304-.5.68v3.25c.285-.017.635-.01 1 .07M88 19.353V8l7.457 8.11V8.723H97V20l-7.457-8.09v7.443z" fill="#FFF"/></g></svg>
